li/brand-app-store-ios.svg

<svg role="img" focusable="false" aria-hidden="true" xmlns="http://www.w3.org/2000/svg" viewBox="0 0 14 14" height="1em" width="1em">
  <path d="M 11.714286,1 2.2857143,1 C 1.5758929,1 1,1.57589 1,2.28571 l 0,9.42858 C 1,12.42411 1.5758929,13 2.2857143,13 l 9.4285717,0 C 12.424107,13 13,12.42411 13,11.71429 L 13,2.28571 C 13,1.57589 12.424107,1 11.714286,1 Z M 4.4017857,10.44196 C 4.2544643,10.69911 3.925,10.78482 3.6705357,10.6375 3.4133929,10.49018 3.3276786,10.16071 3.475,9.90625 L 3.8580357,9.24464 C 4.2892857,9.11339 4.6428571,9.21514 4.91875,9.55 L 4.4017857,10.44196 Z M 8.1223214,8.99821 3.25,8.99821 c -0.2946429,0 -0.5357143,-0.24107 -0.5357143,-0.53571 0,-0.29464 0.2410714,-0.53571 0.5357143,-0.53571 l 1.3660714,0 L 6.3678571,4.89464 5.81875,3.94643 C 5.6714286,3.68929 5.759821,3.3625 6.0142857,3.21518 6.2714286,3.06786 6.5982143,3.15628 6.7455357,3.41071 l 0.2383929,0.4125 0.2383928,-0.4125 C 7.3696429,3.15357 7.6991071,3.06786 7.9535714,3.21518 8.2107143,3.3625 8.2964286,3.69196 8.1491071,3.94643 l -2.2982142,3.98036 1.6633928,0 c 0.5410714,0 0.84375,0.63482 0.6080357,1.07142 z m 2.6276786,0 -0.7767857,0 0.5249997,0.90804 c 0.147322,0.25714 0.05893,0.58393 -0.195535,0.73125 C 10.045536,10.78482 9.71875,10.6964 9.5714286,10.44196 8.6901786,8.91786 8.03125,7.77143 7.5892857,7.01071 7.1419643,6.23393 7.4607143,5.45714 7.7794643,5.19464 8.1303571,5.80268 8.6553571,6.71339 9.3571429,7.92679 l 1.3928571,0 c 0.294643,0 0.535714,0.24107 0.535714,0.53571 0,0.29732 -0.241071,0.53571 -0.535714,0.53571 z"/>
</svg>

<svg aria-hidden="true" xmlns="http://www.w3.org/2000/svg" viewBox="0 0 14 14" height="1em" width="1em">
  <path d="M11.714 1H2.286C1.576 1 1 1.576 1 2.286v9.428C1 12.424 1.576 13 2.286 13h9.428c.71 0 1.286-.576 1.286-1.286V2.286C13 1.576 12.424 1 11.714 1Zm-7.312 9.442a.535.535 0 1 1-.927-.536l.383-.661c.431-.132.785-.03 1.06.305l-.516.892Zm3.72-1.444H3.25a.537.537 0 0 1-.536-.535c0-.295.241-.536.536-.536h1.366l1.752-3.032-.55-.949a.537.537 0 0 1 .196-.73.537.537 0 0 1 .732.195l.238.412.238-.412a.535.535 0 1 1 .927.535l-2.298 3.98h1.663c.541 0 .844.636.608 1.072zm2.628 0h-.777l.525.908a.537.537 0 0 1-.195.731.537.537 0 0 1-.732-.195c-.88-1.524-1.54-2.67-1.982-3.431-.447-.777-.128-1.554.19-1.816l1.578 2.732h1.393a.536.536 0 1 1 0 1.071z"/>
</svg>
